images/thermometer.svg

<svg width="24" height="24" viewBox="0 0 24 24" fill="none" xmlns="http://www.w3.org/2000/svg">
<path d="M14.3917 3.8021C14.3917 2.79372 14.0229 1.82664 13.3665 1.11361C12.7102 0.400577 11.8199 0 10.8917 0C9.96343 0 9.07319 0.400577 8.41682 1.11361C7.76044 1.82664 7.39169 2.79372 7.39169 3.8021V14.8682C6.49442 15.863 5.99438 17.202 6.00005 18.5948C5.99764 19.4867 6.19906 20.3654 6.58625 21.1519C6.97343 21.9385 7.53428 22.6084 8.21848 23.1015C8.90268 23.5946 9.68885 23.8956 10.5065 23.9773C11.3241 24.0591 12.1476 23.9191 12.9032 23.57C13.6588 23.2208 14.3228 22.6734 14.8356 21.9769C15.3485 21.2803 15.6942 20.4563 15.8417 19.5789C15.9892 18.7014 15.934 17.7979 15.6809 16.9494C15.4278 16.1009 14.9848 15.3338 14.3917 14.7171V3.8021ZM14.5169 18.5948C14.524 19.2544 14.3757 19.905 14.0861 20.4848C13.7966 21.0646 13.3755 21.5545 12.8627 21.9078C12.3499 22.2611 11.7625 22.4661 11.1562 22.5035C10.55 22.5408 9.94501 22.4092 9.39874 22.1212C8.85248 21.8331 8.38306 21.3981 8.03505 20.8576C7.68704 20.317 7.472 19.6888 7.41035 19.0325C7.34869 18.3763 7.44246 17.7138 7.68276 17.108C7.92306 16.5023 8.30191 15.9732 8.78334 15.5712V3.8021C8.78334 3.19466 9.00547 2.61211 9.40086 2.18259C9.79625 1.75307 10.3325 1.51177 10.8917 1.51177C11.4508 1.51177 11.9871 1.75307 12.3825 2.18259C12.7779 2.61211 13 3.19466 13 3.8021V15.4276C13.4696 15.7831 13.8529 16.2569 14.1171 16.8085C14.3813 17.3601 14.5185 17.973 14.5169 18.5948Z" fill="#2D3440"/>
<path d="M11.6501 16.2288V3.85501C11.6501 3.65454 11.5768 3.46227 11.4463 3.32052C11.3158 3.17876 11.1388 3.09913 10.9543 3.09913C10.7698 3.09913 10.5928 3.17876 10.4623 3.32052C10.3318 3.46227 10.2585 3.65454 10.2585 3.85501V16.2288C9.79422 16.4071 9.40293 16.758 9.15377 17.2194C8.90461 17.6808 8.81363 18.223 8.8969 18.7503C8.98017 19.2775 9.23233 19.7558 9.60882 20.1006C9.98531 20.4453 10.4619 20.6345 10.9543 20.6345C11.4467 20.6345 11.9233 20.4453 12.2998 20.1006C12.6763 19.7558 12.9284 19.2775 13.0117 18.7503C13.095 18.223 13.004 17.6808 12.7548 17.2194C12.5057 16.758 12.1144 16.4071 11.6501 16.2288Z" fill="#2D3440"/>
<path d="M20 2.95551H15.8251V4.46728H20V2.95551Z" fill="#2D3440"/>
<path d="M20 5.97904H15.8251V7.49081H20V5.97904Z" fill="#2D3440"/>
<path d="M20 9.00258H15.8251V10.5143H20V9.00258Z" fill="#2D3440"/>
<path d="M20 12.0261H15.8251V13.5379H20V12.0261Z" fill="#2D3440"/>
</svg>

<svg xmlns="http://www.w3.org/2000/svg" width="24" height="24" fill="none"><path fill="#2D3440" d="M14.392 3.802a3.975 3.975 0 0 0-1.025-2.688C12.71.4 11.82 0 10.892 0c-.929 0-1.819.4-2.475 1.114a3.975 3.975 0 0 0-1.025 2.688v11.066c-.898.995-1.398 2.334-1.392 3.727-.002.892.2 1.77.586 2.557a5.256 5.256 0 0 0 1.632 1.95c.685.493 1.47.794 2.289.875a4.608 4.608 0 0 0 2.396-.407 5.028 5.028 0 0 0 1.933-1.593 5.616 5.616 0 0 0 1.006-2.398 5.835 5.835 0 0 0-.161-2.63 5.474 5.474 0 0 0-1.29-2.232V3.802Zm.125 14.793c.007.66-.141 1.31-.43 1.89-.29.58-.711 1.07-1.224 1.423a3.37 3.37 0 0 1-1.707.595 3.323 3.323 0 0 1-1.757-.382 3.661 3.661 0 0 1-1.364-1.263 4.08 4.08 0 0 1-.625-1.826 4.172 4.172 0 0 1 .273-1.924c.24-.606.619-1.135 1.1-1.537V3.802c0-.607.222-1.19.618-1.62.395-.429.931-.67 1.49-.67.56 0 1.096.241 1.492.67.395.43.617 1.013.617 1.62v11.626c.47.355.853.829 1.117 1.38.264.552.401 1.165.4 1.787Z"/><path fill="#2D3440" d="M11.65 16.229V3.855a.79.79 0 0 0-.204-.534.669.669 0 0 0-.492-.222.669.669 0 0 0-.492.222.79.79 0 0 0-.204.534v12.374c-.464.178-.855.529-1.104.99a2.435 2.435 0 0 0-.257 1.531 2.32 2.32 0 0 0 .712 1.35c.376.345.853.534 1.345.534.493 0 .97-.189 1.346-.533a2.32 2.32 0 0 0 .712-1.35 2.434 2.434 0 0 0-.257-1.532 2.137 2.137 0 0 0-1.105-.99ZM20 2.956h-4.175v1.511H20V2.956ZM20 5.979h-4.175v1.512H20V5.979ZM20 9.003h-4.175v1.511H20V9.003ZM20 12.026h-4.175v1.512H20v-1.512Z"/></svg>
